korla/apps/scalable/rto-proxy.svg

<svg width="48" height="48" xmlns="http://www.w3.org/2000/svg">
 <path d="m24 5a20 20 0 0 0-20 20 20 20 0 0 0 20 20 20 20 0 0 0 20-20 20 20 0 0 0-20-20z" opacity=".2"/>
 <path d="m24 4a20 20 0 0 0-20 20 20 20 0 0 0 20 20 20 20 0 0 0 20-20 20 20 0 0 0-20-20z" fill="#46c552"/>
 <path d="m24 4a20 20 0 0 0 -20 20 20 20 0 0 0 .0214844.417969 20 20 0 0 1 19.9785156-19.417969 20 20 0 0 1 19.978516 19.582031 20 20 0 0 0 .021484-.582031 20 20 0 0 0 -20-20z" fill="#fff" opacity=".2"/>
 <path d="m20.29527 34.391191c1.869634-.884845 3.535504-1.607187 3.701933-1.605204.166429.0019 1.818725.725946 3.671767 1.608808 1.853042.882863 3.490451 1.605205 3.638684 1.605205.205058 0 .244227-.169754.163769-.709769-.05816-.390373-.290805-2.221384-.516989-4.068913l-.411244-3.359144 1.854366-1.996616c2.755861-2.967262 3.69989-4.061872 3.594616-4.167985-.05197-.05238-1.816786-.431063-3.921794-.841487-3.043631-.593433-3.89115-.824662-4.139202-1.129298-.171556-.210691-.967751-1.59669-1.769324-3.079999-1.705834-3.156649-2.137284-3.823676-2.335398-3.610549-.08003.0861-.961086 1.647033-1.957907 3.46875-.996822 1.821716-1.874429 3.374735-1.950243 3.45115-.07582.07642-1.698214.439816-3.605335.807552-4.451709.85839-4.312487.824098-4.312487 1.062219 0 .111836 1.228098 1.520758 2.729106 3.130939 2.551461 2.737034 2.722554 2.966888 2.628444 3.53117-.18401 1.103321-.850201 6.653391-.850569 7.086119-.000187.234224.08712.425861.194057.425861.106932 0 1.724116-.723964 3.59375-1.608809z" opacity=".2"/>
 <path d="m20.29527 33.391191c1.869634-.884845 3.535504-1.607187 3.701933-1.605204.166429.0019 1.818725.725946 3.671767 1.608808 1.853042.882863 3.490451 1.605205 3.638684 1.605205.205058 0 .244227-.169754.163769-.709769-.05816-.390373-.290805-2.221384-.516989-4.068913l-.411244-3.359144 1.854366-1.996616c2.755861-2.967262 3.69989-4.061872 3.594616-4.167985-.05197-.05238-1.816786-.431063-3.921794-.841487-3.043631-.593433-3.89115-.824662-4.139202-1.129298-.171556-.210691-.967751-1.59669-1.769324-3.079999-1.705834-3.156649-2.137284-3.823676-2.335398-3.610549-.08003.0861-.961086 1.647033-1.957907 3.46875-.996822 1.821716-1.874429 3.374735-1.950243 3.45115-.07582.07642-1.698214.439816-3.605335.807552-4.451709.85839-4.312487.824098-4.312487 1.062219 0 .111836 1.228098 1.520758 2.729106 3.130939 2.551461 2.737034 2.722554 2.966888 2.628444 3.53117-.18401 1.103321-.850201 6.653391-.850569 7.086119-.000187.234224.08712.425861.194057.425861.106932 0 1.724116-.723964 3.59375-1.608809z" fill="#fff"/>
</svg>

<svg xmlns="http://www.w3.org/2000/svg" width="48" height="48" version="1.1">
 <path style="opacity:0.2" d="M 24,5 A 20,20 0 0 0 4,25 20,20 0 0 0 24,45 20,20 0 0 0 44,25 20,20 0 0 0 24,5 Z"/>
 <path style="fill:#46c552" d="M 24,4 A 20,20 0 0 0 4,24 20,20 0 0 0 24,44 20,20 0 0 0 44,24 20,20 0 0 0 24,4 Z"/>
 <path style="opacity:0.2;fill:#ffffff" d="M 24,4 A 20,20 0 0 0 4,24 20,20 0 0 0 4.0214844,24.417969 20,20 0 0 1 24,5 20,20 0 0 1 43.978516,24.582031 20,20 0 0 0 44,24 20,20 0 0 0 24,4 Z"/>
 <path style="opacity:0.2" d="m 20.29527,34.391191 c 1.869634,-0.884845 3.535504,-1.607187 3.701933,-1.605204 0.166429,0.0019 1.818725,0.725946 3.671767,1.608808 C 29.522012,35.277658 31.159421,36 31.307654,36 c 0.205058,0 0.244227,-0.169754 0.163769,-0.709769 -0.05816,-0.390373 -0.290805,-2.221384 -0.516989,-4.068913 l -0.411244,-3.359144 1.854366,-1.996616 c 2.755861,-2.967262 3.69989,-4.061872 3.594616,-4.167985 -0.05197,-0.05238 -1.816786,-0.431063 -3.921794,-0.841487 -3.043631,-0.593433 -3.89115,-0.824662 -4.139202,-1.129298 -0.171556,-0.210691 -0.967751,-1.59669 -1.769324,-3.079999 -1.705834,-3.156649 -2.137284,-3.823676 -2.335398,-3.610549 -0.08003,0.0861 -0.961086,1.647033 -1.957907,3.46875 -0.996822,1.821716 -1.874429,3.374735 -1.950243,3.45115 -0.07582,0.07642 -1.698214,0.439816 -3.605335,0.807552 -4.451709,0.85839 -4.312487,0.824098 -4.312487,1.062219 0,0.111836 1.228098,1.520758 2.729106,3.130939 2.551461,2.737034 2.722554,2.966888 2.628444,3.53117 -0.18401,1.103321 -0.850201,6.653391 -0.850569,7.086119 C 16.507276,35.808363 16.594583,36 16.70152,36 c 0.106932,0 1.724116,-0.723964 3.59375,-1.608809 z"/>
 <path style="fill:#ffffff" d="m 20.29527,33.391191 c 1.869634,-0.884845 3.535504,-1.607187 3.701933,-1.605204 0.166429,0.0019 1.818725,0.725946 3.671767,1.608808 C 29.522012,34.277658 31.159421,35 31.307654,35 c 0.205058,0 0.244227,-0.169754 0.163769,-0.709769 -0.05816,-0.390373 -0.290805,-2.221384 -0.516989,-4.068913 l -0.411244,-3.359144 1.854366,-1.996616 c 2.755861,-2.967262 3.69989,-4.061872 3.594616,-4.167985 -0.05197,-0.05238 -1.816786,-0.431063 -3.921794,-0.841487 -3.043631,-0.593433 -3.89115,-0.824662 -4.139202,-1.129298 -0.171556,-0.210691 -0.967751,-1.59669 -1.769324,-3.079999 -1.705834,-3.156649 -2.137284,-3.823676 -2.335398,-3.610549 -0.08003,0.0861 -0.961086,1.647033 -1.957907,3.46875 -0.996822,1.821716 -1.874429,3.374735 -1.950243,3.45115 -0.07582,0.07642 -1.698214,0.439816 -3.605335,0.807552 -4.451709,0.85839 -4.312487,0.824098 -4.312487,1.062219 0,0.111836 1.228098,1.520758 2.729106,3.130939 2.551461,2.737034 2.722554,2.966888 2.628444,3.53117 -0.18401,1.103321 -0.850201,6.653391 -0.850569,7.086119 C 16.507276,34.808363 16.594583,35 16.70152,35 c 0.106932,0 1.724116,-0.723964 3.59375,-1.608809 z"/>
</svg>
